X:1
T:Kyrie
T:Kyrie
T:from Missa de Beata Virgine
T:Giovanni Pierluigi da Palestrina (1525-1594)
T:-
T:-
T:-
T:-
%%score 1 2 3 4
L:1/8
Q:1/2=80
M:4/2
K:F
V:1 treble nm="Soprano" snm="S."
V:2 treble nm="Alto" snm="A."
V:3 treble-8 nm="Tenor" snm="T."
V:4 bass nm="Baritone" snm="Bar."
V:1
 G8 B8 | c8 (d8 | c4 B4 A8) | (G2 A2 B2 c2 d8) | z8 f8 | e4 d6 (c2 c2 BA | B8) A8- | %7
w: Ky- rie|e- lei-||son, * * * *|ky-|rie e- lei- * * *|* son,|
 A8 !breath!z4 d4- | d4 c4 B4 A4- | (A2 G2 G8 ^F4) | !fermata!G16 | z16 | z16 | z8 !breath!z4 G4 | %14
w: * ky-|* rie e- lei-||son,|||Chris-|
 (B6 c2 d4) e4 | f8 d8 | z16 | z8 !breath!z4 G4 | (B6 c2 d4) e4 | (f4 d4 _e4 d4 | G8 A8 | B8) A8 | %22
w: ste * * e-|lei- son,|||ste- * * *|||* son,|
 !breath!z4 G4 A4 F4 | (G4 A4 B8) | (A6 B2 c8) | !breath!z4 G4 A4 F4 | (G4 A4 !fermata!B8) | A16 | %28
w: Christe * e-|lei- * *|son, * *|Chri- ste e-|lei- * *|son,|
 z16 | z16 | !breath!z16 | d16 | f8 g8 | (g8 f8 | g8) d8 | z16 | !breath!z12 d4- | d4 c4 B4 c4- | %38
w: |||ky-|rie e-||* son,-|||* rie e- lei-|
 c4 B4 A8- | A8 G8- | G8 A8 | z8 !breath!z4 d4- | d4 c4 B4 (c4- | c4 B4 A4 G4 | A8) (A6 GA | %45
w: ||* son,|ky-|* rie e- lei-||* son, * *|
 !breath!B4) (A6 G2 G4- | G4) ^F2- E2 F8 | G16 |] %48
w: * e- * *|* le1- * *|son.|
V:2
 z8 G8 | F4 E4 (D2 E2 F2 G2 | A4 G8 ^F4) | !breath!G12 B4 | A4 G4 (F4 A4- | A4 D4 E4 F4 | G12) F4 | %7
w: Ky-|rie e- lei- * * *||son, ky-|rie e- lei- *||* son,|
 z4 A8 G4 | F4 (E6 D2 D4- | D4 C4 D8) | !fermata!D16 | !breath!z4 D4 (F6 G2 | A4) B4 c8 | %13
w: ky- rie|e- lei- * *||son,|Chri- ste *|* e- lei-|
 !breath!G8 B8 | G4 (B8 A2 G2 | A4 D4) (F6 G2 | A4 B4) !breath!c8 | G8 B8 | G4 (B8 A2 G2 | %19
w: son, Chri-|ste e- * *|* * lei- *|* * son,|Chri- ste|e- lei- * *|
 F4 G6 A2 B4- | B2 A2 G8 F4 | G2 D2 G6 F2 F4- | F4 E4 F4 D4) | C8 !breath!z4 G4 | A4 F4 (G4 A4 | %25
w: |||* * * son,|* Chri-|* e- lei- *|
 B6 AG F4 A4 | B4 A4 !fermata!G8) | ^F16 | z16 | z16 | z16 | !breath!z4"Cky-rie" G4 B4 B4 | %32
w: ||son,||||* * e-|
 (A8 G4 c4- | c2 B2 B2 AG A8) | G8 !breath!z4 D4- | D4 C4 (F8 | E4 A8 G4 | F4 E4 G4 A4- | %38
w: lei- * *||son, ky-|rie- * *|||
 A2 G2 G8 F2 E2 | F4 E4 D4 E4- | E2 D2 D4) (E6 F2 | G4 E4 G8) | A8 z4 (A4- | A4 G4 F4 G4- | %44
w: ||* * * lei- *||son, ky-||
 G4 F4 E6 C2 | D2 E2 F4 D8- | D16) | D16 |] %48
w: |||son.|
V:3
 z16 | z16 | !breath!z16 | G8 B8 | c8 (d8 | c4 B4 A8) | G8 !breath!z4 d4- | d4 c8 B4 | (c8 d8 | %9
w: |||Ky- rie|e- lei-||son,- *|* rie e-|lei- *|
 G8 A8) | !breath!!fermata!G16 | d16 | (d8 c8) | _e12 d4 | d8 !breath!z8 | d16 | (d8 c8) | %17
w: |son,|Chri-|ste *|e- lei-|son,|Chri-|ste *|
 _e12 d4 | d8 !breath!z4 c4 | d4 B4 (c4 d4 | _e8) d8- | d8 z8 | z16 | !breath!z4 c4 d4 B4 | %24
w: e- lei-|son, Chri-|ste e- lei- *|* son,|||Chri ste e-|
 (c4 d4 _e8) | d16- | !fermata!d16- | !breath!d16 | d16 | (f8 g8) | (g8 f8) | g16 | %32
w: lei- * *|son,|||ky-|rie *|e- *|lei-|
 d8 !breath!z4 c4 | _e4 e4 (d8 | G4 g6 f2 f2 =ed | e8 d8 | A8) d8 | z16 | z8 z4 d4- | %39
w: son, ky-|rie e- lei-|||* son,-|||
 d4 c4 B4 c4- | c4 B4 A8 | !breath!G4 (g6 f2 d4) | (e6 =f2 g4 c4) | d8 z8 | !breath!z4 d8 c4 | %45
w: |* * lei-|son,- * * *|lei- * * *|son,|ky- rie|
 B4 (c8 B4 | A16) | G16 |] %48
w: e- lei- *||son.|
V:4
 z16 | z16 | z16 | !breath!z8 G,8 | F,4 E,4 (D,2 E,2 F,2 G,2 | A,4 B,4 C8) | !breath!D8 D,8 | %7
w: |||Ky-|rie e- lei- * * *||son, ky-|
 F,8 G,8 | (A,8 G,4 F,4 | E,8 D,8) | !fermata!G,16 | z8 D,8 | F,4 G,4 (A,6 B,2 | C8) G,8- | %14
w: rie e|lei- * *||son,||||
 G,8 z8 | !breath!z8 D,8 | F,4 G,4 (A,6 B,2 | C8) G,8- | G,8 z8 | z16 | !breath!z16 | G,8 A,4 F,4 | %22
w: |||||||Chri- ste e-|
 (C8 A,4 B,4- | B,4 A,4 G,8) | !breath!F,8 C,8 | G,8 D,8 | (G,4 ^F,4 !fermata!G,8) | !breath!D,16 | %28
w: lei- * *||son, *||||
 G,8 B,4 B,4 | (A,8 G,4 C4- | C2 B,2 B,2 A,G, A,8) | G,16 | z16 | z16 | %34
w: ky- rie e-|lei- * *||son,|||
 !breath!z4 G,4 B,4 z2/3 B,4 | (A,8 D,4 D4- | D2 C2 C2 B,A, B,8) | !breath!A,4 A,4 G,4 F,4 | %38
w: ky- rie e-|lei- * *||son, ky- rie e-|
 G,8 D,8 | z16 | !breath!z4 D8 C4 | (B,4 C8 B,4 | A,4) A,4 !breath!G,4 F,4- | F,4 G,4 D,4 _E,4 | %44
w: lei- son,||ky- rie|e- * *|* lei- son, ky-|* rie e- lei-|
 !breath!D,8 A,8 | G,4 E,4 (G,8 | D,16) | G,16 |] %48
w: son, ky-|rie e- lei-||son.|

